X:3907
T:Maguire's
O:england
R:jig
S:G version from Marcas O Murchu
H:Played in A or in G
D:Four Men and a Dog: Barking Mad
M:6/8
L:1/8
K:A
A2A BAB|cAF FEF|Ace fae|fae fec|
A2A BAB|cAF FEF|Ace faf|ecB A2E:|
|:Ace fae|fae fec|Acd ~e3|efe ecB|1 Ace fae|
fae fec|Ace faf|ecB A2E:|2 A2A BAB|cAF FEF|
Ace faf|ecB A2E|
K:G
|G2G AGA|BGE EDE|GBd egd|egd edB|
G2G AGA|BGE EDE|GBd ege|dBA G2D:|
|:GBd egd|egd edB|GBc ded|ded dBA|1 GBd egd|
egd edB|GBd ege|dBA G2D:|2 G2G AGA|BGE EDE|
GBd ege|dBA G2D||


